!!!SOCIAL_FUNCTION:	divorce songs
!!!PDT:	1943
!!!OTL: No_84_Divorce_Dance_Song_(b).krn
!!!REG: British Columbia
**kern
*staff1
=1-
*clefG2
*k[f#c#g#d#a#]
*M2/4
4.r
8f#/
=2
8.b;\L
16cc#\Jk
8.b/L
16f#/Jk
=3
4f#/
12f#/L
12d#/
12f#/J
=4||
*M3/4
8.b/L
16a#/Jk
4.b\
8f#/
=5
2f#/
16g#/
8r
16g#/
=6
4..b\
16cc#\
8.b/L
16a#/Jk
=7
16a#/LK
8.g#/J
8e/
16r
16g#/
8.a#/L
16g#/Jk
=8
8g#/L
[8e/J
4e/]
8g#/L
8e/J
=9||
*M2/4
4d#/
16B/LK
[8.B/J
=10
2B/]
=11
[2B/
=12
4B/]
8d#/
16r
16g#/
=13
12g#/L
12e/
12g#/J
8.e/L
16d#/Jk
=14
12d#/L
12e/
12e/J
4d#/
=15
[2B/
=16
2B/]
==
*-
